src/components/HostingOption/images/hosting-heroku.svg

<svg width="17" height="16" viewBox="0 0 17 16" fill="none" xmlns="http://www.w3.org/2000/svg">
<path d="M0.686279 0H16.6863V16H0.686279V0Z" fill="white"/>
<path d="M9.75674 12.606V7.56662C9.75674 7.56662 10.0844 6.36086 5.71898 8.06006C5.7113 8.08182 5.7113 3.39959 5.7113 3.39959L7.13786 3.39062V6.39031C7.13786 6.39031 11.1315 4.81718 11.1315 7.58326V12.606H9.75674ZM10.5695 5.20631H9.05658C9.60122 4.54071 10.094 3.39959 10.094 3.39959H11.6582C11.6588 3.39959 11.3907 4.14327 10.5695 5.20631ZM5.7369 12.5977V9.7279L7.17178 11.1628L5.7369 12.5977Z" fill="#150230"/>
</svg>

<svg fill="none" viewBox="0 0 17 16"><path fill="#fff" d="M.686 0h16v16h-16V0z"/><path fill="#150230" d="M9.757 12.606v-5.04s.327-1.205-4.038.494c-.008.022-.008-4.66-.008-4.66l1.427-.01v3s3.994-1.573 3.994 1.193v5.023H9.757zm.813-7.4H9.056C9.6 4.541 10.094 3.4 10.094 3.4h1.564s-.267.743-1.088 1.806zm-4.833 7.392v-2.87l1.435 1.435-1.435 1.435z"/></svg>
